Tutorial 03 - Complete/res/Warm.CUBE
#Created by: Adobe Photoshop Export Color Lookup Plugin
TITLE "Untitled-1"
#LUT size
LUT_3D_SIZE 32
#data domain
DOMAIN_MIN 0.0 0.0 0.0
DOMAIN_MAX 1.0 1.0 1.0
#LUT data points
0.263916 0.016846 0.053894
0.290527 0.017944 0.057343
0.317200 0.019012 0.060852
0.343842 0.020111 0.064301
0.370514 0.021210 0.067810
0.397095 0.022278 0.071259
0.423767 0.023376 0.074738
0.450378 0.024475 0.078247
0.477051 0.025543 0.081696
0.503693 0.026642 0.085175
0.530334 0.027710 0.088654
0.556976 0.028809 0.092102
0.583618 0.029907 0.095612
0.610260 0.031006 0.099091
0.636902 0.032074 0.102570
0.663544 0.033173 0.106049
0.690186 0.034241 0.109528
0.716858 0.035339 0.112976
0.743500 0.036407 0.116486
0.770142 0.037506 0.119965
0.796783 0.038574 0.123444
0.823425 0.039673 0.126892
0.850037 0.040771 0.130371
0.876709 0.041870 0.133850
0.891388 0.054871 0.145691
0.902100 0.071899 0.160339
0.912811 0.088928 0.174957
0.923492 0.105988 0.189606
0.934204 0.122955 0.204254
0.944916 0.140045 0.218903
0.955597 0.157043 0.233490
0.966309 0.174042 0.248138
0.280914 0.027557 0.057343
0.290527 0.027557 0.057343
0.317200 0.028625 0.060852
0.343842 0.029724 0.064301
0.370514 0.030823 0.067810
0.397095 0.031891 0.071259
0.423767 0.032990 0.074738
0.450378 0.034088 0.078247
0.477051 0.035156 0.081696
0.503693 0.036255 0.085175
0.530334 0.037323 0.088654
0.556976 0.038422 0.092102
0.583618 0.039520 0.095612
0.610260 0.040619 0.099091
0.636902 0.041687 0.102570
0.663544 0.042786 0.106049
0.690186 0.043854 0.109528
0.716858 0.044952 0.112976
0.743500 0.046021 0.116486
0.770142 0.047119 0.119965
0.796783 0.048187 0.123444
0.823425 0.049286 0.126892
0.850037 0.050385 0.130371
0.876709 0.051483 0.133850
0.891388 0.064484 0.145691
0.902100 0.081543 0.160339
0.912811 0.098541 0.174957
0.923492 0.115601 0.189606
0.934204 0.132568 0.204254
0.944916 0.149658 0.218903
0.955597 0.166656 0.233490
0.966309 0.183655 0.248138
0.297974 0.038239 0.060852
0.307587 0.038239 0.060852
0.317200 0.038239 0.060852
0.343842 0.039337 0.064301
0.370514 0.040436 0.067810
0.397095 0.041504 0.071259
0.423767 0.042603 0.074738
0.450378 0.043701 0.078247
0.477051 0.044769 0.081696
0.503693 0.045868 0.085175
0.530334 0.046936 0.088654
0.556976 0.048035 0.092102
0.583618 0.049133 0.095612
0.610260 0.050232 0.099091
0.636902 0.051300 0.102570
0.663544 0.052399 0.106049
0.690186 0.053467 0.109528
0.716858 0.054565 0.112976
0.743500 0.055634 0.116486
0.770142 0.056732 0.119965
0.796783 0.057800 0.123444
0.823425 0.058899 0.126892
0.850037 0.059998 0.130371
0.876709 0.061096 0.133850
0.891388 0.074097 0.145691
0.902100 0.091156 0.160339
0.912811 0.108154 0.174957
0.923492 0.125214 0.189606
0.934204 0.142181 0.204254
0.944916 0.159271 0.218903
0.955597 0.176270 0.233490
0.966309 0.193298 0.248138
0.315002 0.048950 0.064301
0.324615 0.048950 0.064301
0.334229 0.048950 0.064301
0.343842 0.048950 0.064301
0.370514 0.050049 0.067810
0.397095 0.051117 0.071259
0.423767 0.052216 0.074738
0.450378 0.053314 0.078247
0.477051 0.054413 0.081696
0.503693 0.055481 0.085175
0.530334 0.056549 0.088654
0.556976 0.057648 0.092102
0.583618 0.058746 0.095612
0.610260 0.059845 0.099091
0.636902 0.060913 0.102570
0.663544 0.062012 0.106049
0.690186 0.063110 0.109528
0.716858 0.064178 0.112976
0.743500 0.065247 0.116486
0.770142 0.066345 0.119965
0.796783 0.067413 0.123444
0.823425 0.068512 0.126892
0.850037 0.069611 0.130371
0.876709 0.070709 0.133850
0.891388 0.083740 0.145691
0.902100 0.100769 0.160339
0.912811 0.117767 0.174957
0.923492 0.134827 0.189606
0.934204 0.151794 0.204254
0.944916 0.168884 0.218903
0.955597 0.185883 0.233490
0.966309 0.202911 0.248138
0.332031 0.059662 0.067810
0.341644 0.059662 0.067810
0.351288 0.059662 0.067810
0.360901 0.059662 0.067810
0.370514 0.059662 0.067810
0.397095 0.060730 0.071259
0.423767 0.061829 0.074738
0.450378 0.062927 0.078247
0.477051 0.064026 0.081696
0.503693 0.065094 0.085175
0.530334 0.066162 0.088654
0.556976 0.067261 0.092102
0.583618 0.068359 0.095612
0.610260 0.069458 0.099091
0.636902 0.070526 0.102570
0.663544 0.071625 0.106049
0.690186 0.072723 0.109528
0.716858 0.073792 0.112976
0.743500 0.074860 0.116486
0.770142 0.075958 0.119965
0.796783 0.077026 0.123444
0.823425 0.078125 0.126892
0.850037 0.079224 0.130371
0.876709 0.080322 0.133850
0.891388 0.093353 0.145691
0.902100 0.110382 0.160339
0.912811 0.127380 0.174957
0.923492 0.144440 0.189606
0.934204 0.161407 0.204254
0.944916 0.178497 0.218903
0.955597 0.195496 0.233490
0.966309 0.212524 0.248138
0.349030 0.070343 0.071259
0.358643 0.070343 0.071259
0.368256 0.070343 0.071259
0.377869 0.070343 0.071259
0.387482 0.070343 0.071259
0.397095 0.070343 0.071259
0.423767 0.071442 0.074738
0.450378 0.072540 0.078247
0.477051 0.073639 0.081696
0.503693 0.074707 0.085175
0.530334 0.075775 0.088654
0.556976 0.076874 0.092102
0.583618 0.077972 0.095612
0.610260 0.079071 0.099091
0.636902 0.080139 0.102570
0.663544 0.081238 0.106049
0.690186 0.082336 0.109528
0.716858 0.083405 0.112976
0.743500 0.084473 0.116486
0.770142 0.085571 0.119965
0.796783 0.086639 0.123444
0.823425 0.087738 0.126892
0.850037 0.088837 0.130371
0.876709 0.089935 0.133850
0.891388 0.102966 0.145691
0.902100 0.119995 0.160339
0.912811 0.136993 0.174957
0.923492 0.154053 0.189606
0.934204 0.171021 0.204254
0.944916 0.188110 0.218903
0.955597 0.205109 0.233490
0.966309 0.222137 0.248138
0.366089 0.081055 0.074738
0.375702 0.081055 0.074738
0.385315 0.081055 0.074738
0.394928 0.081055 0.074738
0.404541 0.081055 0.074738
0.414154 0.081055 0.074738
0.423767 0.081055 0.074738
0.450378 0.082153 0.078247
0.477051 0.083252 0.081696
0.503693 0.084320 0.085175
0.530334 0.085388 0.088654
0.556976 0.086487 0.092102
0.583618 0.087585 0.095612
0.610260 0.088684 0.099091
0.636902 0.089752 0.102570
0.663544 0.090851 0.106049
0.690186 0.091949 0.109528
0.716858 0.093018 0.112976
0.743500 0.094086 0.116486
0.770142 0.095184 0.119965
0.796783 0.096252 0.123444
0.823425 0.097351 0.126892
0.850037 0.098450 0.130371
0.876709 0.099548 0.133850
0.891388 0.112579 0.145691
0.902100 0.129608 0.160339
0.912811 0.146606 0.174957
0.923492 0.163666 0.189606
0.934204 0.180634 0.204254
0.944916 0.197723 0.218903
0.955597 0.214722 0.233490
0.966309 0.231750 0.248138
0.383087 0.091766 0.078247
0.392700 0.091766 0.078247
0.402313 0.091766 0.078247
0.411926 0.091766 0.078247
0.421539 0.091766 0.078247
0.431152 0.091766 0.078247
0.440765 0.091766 0.078247
0.450378 0.091766 0.078247
0.477051 0.092865 0.081696
0.503693 0.093933 0.085175
0.530334 0.095032 0.088654
0.556976 0.096100 0.092102
0.583618 0.097198 0.095612
0.610260 0.098297 0.099091
0.636902 0.099365 0.102570
0.663544 0.100464 0.106049
0.690186 0.101563 0.109528
0.716858 0.102631 0.112976
0.743500 0.103699 0.116486
0.770142 0.104797 0.119965
0.796783 0.105865 0.123444
0.823425 0.106964 0.126892
0.850037 0.108063 0.130371
0.876709 0.109161 0.133850
0.891388 0.122192 0.145691
0.902100 0.139221 0.160339
0.912811 0.156219 0.174957
0.923492 0.173279 0.189606
0.934204 0.190247 0.204254
0.944916 0.207336 0.218903
0.955597 0.224335 0.233490
0.966309 0.241364 0.248138
0.400146 0.102478 0.081696
0.409760 0.102478 0.081696
0.419373 0.102478 0.081696
0.428986 0.102478 0.081696
0.438599 0.102478 0.081696
0.448212 0.102478 0.081696
0.457825 0.102478 0.081696
0.467438 0.102478 0.081696
0.477051 0.102478 0.081696
0.503693 0.103546 0.085175
0.530334 0.104645 0.088654
0.556976 0.105713 0.092102
0.583618 0.106812 0.095612
0.610260 0.107910 0.099091
0.636902 0.108978 0.102570
0.663544 0.110077 0.106049
0.690186 0.111176 0.109528
0.716858 0.112244 0.112976
0.743500 0.113342 0.116486
0.770142 0.114410 0.119965
0.796783 0.115479 0.123444
0.823425 0.116577 0.126892
0.850037 0.117676 0.130371
0.876709 0.118774 0.133850
0.891388 0.131805 0.145691
0.902100 0.148834 0.160339
0.912811 0.165833 0.174957
0.923492 0.182892 0.189606
0.934204 0.199860 0.204254
0.944916 0.216949 0.218903
0.955597 0.233948 0.233490
0.966309 0.250977 0.248138
0.417145 0.113159 0.085175
0.426758 0.113159 0.085175
0.436371 0.113159 0.085175
0.445984 0.113159 0.085175
0.455597 0.113159 0.085175
0.465210 0.113159 0.085175
0.474854 0.113159 0.085175
0.484467 0.113159 0.085175
0.494080 0.113159 0.085175
0.503693 0.113159 0.085175
0.530334 0.114258 0.088654
0.556976 0.115326 0.092102
0.583618 0.116425 0.095612
0.610260 0.117523 0.099091
0.636902 0.118591 0.102570
0.663544 0.119690 0.106049
0.690186 0.120789 0.109528
0.716858 0.121857 0.112976
0.743500 0.122955 0.116486
0.770142 0.124023 0.119965
0.796783 0.125092 0.123444
0.823425 0.126190 0.126892
0.850037 0.127289 0.130371
0.876709 0.128387 0.133850
0.891388 0.141418 0.145691
0.902100 0.158447 0.160339
0.912811 0.175446 0.174957
0.923492 0.192505 0.189606
0.934204 0.209473 0.204254
0.944916 0.226563 0.218903
0.955597 0.243561 0.233490
0.966309 0.260590 0.248138
0.434174 0.123871 0.088654
0.443787 0.123871 0.088654
0.453400 0.123871 0.088654
0.463043 0.123871 0.088654
0.472656 0.123871 0.088654
0.482269 0.123871 0.088654
0.491882 0.123871 0.088654
0.501495 0.123871 0.088654
0.511108 0.123871 0.088654
0.520721 0.123871 0.088654
0.530334 0.123871 0.088654
0.556976 0.124939 0.092102
0.583618 0.126038 0.095612
0.610260 0.127136 0.099091
0.636902 0.128204 0.102570
0.663544 0.129303 0.106049
0.690186 0.130402 0.109528
0.716858 0.131470 0.112976
0.743500 0.132568 0.116486
0.770142 0.133636 0.119965
0.796783 0.134705 0.123444
0.823425 0.135803 0.126892
0.850037 0.136902 0.130371
0.876709 0.138000 0.133850
0.891388 0.151031 0.145691
0.902100 0.168060 0.160339
0.912811 0.185059 0.174957
0.923492 0.202118 0.189606
0.934204 0.219116 0.204254
0.944916 0.236176 0.218903
0.955597 0.253174 0.233490
0.966309 0.270203 0.248138
0.451202 0.134552 0.092102
0.460846 0.134552 0.092102
0.470459 0.134552 0.092102
0.480072 0.134552 0.092102
0.489685 0.134552 0.092102
0.499298 0.134552 0.092102
0.508911 0.134552 0.092102
0.518524 0.134552 0.092102
0.528137 0.134552 0.092102
0.537750 0.134552 0.092102
0.547363 0.134552 0.092102
0.556976 0.134552 0.092102
0.583618 0.135651 0.095612
0.610260 0.136749 0.099091
0.636902 0.137817 0.102570
0.663544 0.138916 0.106049
0.690186 0.140015 0.109528
0.716858 0.141083 0.112976
0.743500 0.142181 0.116486
0.770142 0.143250 0.119965
0.796783 0.144318 0.123444
0.823425 0.145416 0.126892
0.850037 0.146515 0.130371
0.876709 0.147614 0.133850
0.891388 0.160645 0.145691
0.902100 0.177673 0.160339
0.912811 0.194672 0.174957
0.923492 0.211731 0.189606
0.934204 0.228729 0.204254
0.944916 0.245789 0.218903
0.955597 0.262787 0.233490
0.966309 0.279816 0.248138
0.468262 0.145264 0.095612
0.477875 0.145264 0.095612
0.487488 0.145264 0.095612
0.497101 0.145264 0.095612
0.506714 0.145264 0.095612
0.516327 0.145264 0.095612
0.525940 0.145264 0.095612
0.535553 0.145264 0.095612
0.545166 0.145264 0.095612
0.554779 0.145264 0.095612
0.564392 0.145264 0.095612
0.574005 0.145264 0.095612
0.583618 0.145264 0.095612
0.610260 0.146362 0.099091
0.636902 0.147430 0.102570
0.663544 0.148529 0.106049
0.690186 0.149628 0.109528
0.716858 0.150696 0.112976
0.743500 0.151794 0.116486
0.770142 0.152863 0.119965
0.796783 0.153961 0.123444
0.823425 0.155029 0.126892
0.850037 0.156128 0.130371
0.876709 0.157227 0.133850
0.891388 0.170258 0.145691
0.902100 0.187286 0.160339
0.912811 0.204285 0.174957
0.923492 0.221344 0.189606
0.934204 0.238342 0.204254
0.944916 0.255402 0.218903
0.955597 0.272400 0.233490
0.966309 0.289429 0.248138
0.485291 0.155975 0.099091
0.494904 0.155975 0.099091
0.504517 0.155975 0.099091
0.514130 0.155975 0.099091
0.523743 0.155975 0.099091
0.533356 0.155975 0.099091
0.542969 0.155975 0.099091
0.552582 0.155975 0.099091
0.562195 0.155975 0.099091
0.571808 0.155975 0.099091
0.581421 0.155975 0.099091
0.591034 0.155975 0.099091
0.600647 0.155975 0.099091
0.610260 0.155975 0.099091
0.636902 0.157043 0.102570
0.663544 0.158142 0.106049
0.690186 0.159241 0.109528
0.716858 0.160309 0.112976
0.743500 0.161407 0.116486
0.770142 0.162476 0.119965
0.796783 0.163574 0.123444
0.823425 0.164642 0.126892
0.850037 0.165741 0.130371
0.876709 0.166840 0.133850
0.891388 0.179871 0.145691
0.902100 0.196899 0.160339
0.912811 0.213898 0.174957
0.923492 0.230957 0.189606
0.934204 0.247955 0.204254
0.944916 0.265015 0.218903
0.955597 0.282013 0.233490
0.966309 0.299042 0.248138
0.502319 0.166656 0.102570
0.511932 0.166656 0.102570
0.521545 0.166656 0.102570
0.531158 0.166656 0.102570
0.540771 0.166656 0.102570
0.550385 0.166656 0.102570
0.559998 0.166656 0.102570
0.569611 0.166656 0.102570
0.579224 0.166656 0.102570
0.588837 0.166656 0.102570
0.598450 0.166656 0.102570
0.608063 0.166656 0.102570
0.617676 0.166656 0.102570
0.627289 0.166656 0.102570
0.636902 0.166656 0.102570
0.663544 0.167755 0.106049
0.690186 0.168854 0.109528
0.716858 0.169922 0.112976
0.743500 0.171021 0.116486
0.770142 0.172089 0.119965
0.796783 0.173187 0.123444
0.823425 0.174255 0.126892
0.850037 0.175354 0.130371
0.876709 0.176453 0.133850
0.891388 0.189484 0.145691
0.902100 0.206512 0.160339
0.912811 0.223511 0.174957
0.923492 0.240570 0.189606
0.934204 0.257568 0.204254
0.944916 0.274628 0.218903
0.955597 0.291626 0.233490
0.966309 0.308655 0.248138
0.519348 0.177368 0.106049
0.528961 0.177368 0.106049
0.538574 0.177368 0.106049
0.548187 0.177368 0.106049
0.557800 0.177368 0.106049
0.567413 0.177368 0.106049
0.577026 0.177368 0.106049
0.586639 0.177368 0.106049
0.596252 0.177368 0.106049
0.605865 0.177368 0.106049
0.615479 0.177368 0.106049
0.625092 0.177368 0.106049
0.634705 0.177368 0.106049
0.644318 0.177368 0.106049
0.653931 0.177368 0.106049
0.663544 0.177368 0.106049
0.690186 0.178467 0.109528
0.716858 0.179535 0.112976
0.743500 0.180634 0.116486
0.770142 0.181702 0.119965
0.796783 0.182800 0.123444
0.823425 0.183868 0.126892
0.850037 0.184967 0.130371
0.876709 0.186066 0.133850
0.891388 0.199097 0.145691
0.902100 0.216125 0.160339
0.912811 0.233124 0.174957
0.923492 0.250183 0.189606
0.934204 0.267181 0.204254
0.944916 0.284241 0.218903
0.955597 0.301239 0.233490
0.966309 0.318268 0.248138
0.536377 0.188080 0.109528
0.545990 0.188080 0.109528
0.555603 0.188080 0.109528
0.565216 0.188080 0.109528
0.574829 0.188080 0.109528
0.584442 0.188080 0.109528
0.594055 0.188080 0.109528
0.603668 0.188080 0.109528
0.613281 0.188080 0.109528
0.622894 0.188080 0.109528
0.632507 0.188080 0.109528
0.642120 0.188080 0.109528
0.651733 0.188080 0.109528
0.661346 0.188080 0.109528
0.670959 0.188080 0.109528
0.680573 0.188080 0.109528
0.690186 0.188080 0.109528
0.716858 0.189148 0.112976
0.743500 0.190247 0.116486
0.770142 0.191345 0.119965
0.796783 0.192413 0.123444
0.823425 0.193512 0.126892
0.850037 0.194611 0.130371
0.876709 0.195679 0.133850
0.891388 0.208710 0.145691
0.902100 0.225739 0.160339
0.912811 0.242767 0.174957
0.923492 0.259796 0.189606
0.934204 0.276794 0.204254
0.944916 0.293854 0.218903
0.955597 0.310883 0.233490
0.966309 0.327881 0.248138
0.553406 0.198761 0.112976
0.563019 0.198761 0.112976
0.572632 0.198761 0.112976
0.582245 0.198761 0.112976
0.591858 0.198761 0.112976
0.601471 0.198761 0.112976
0.611084 0.198761 0.112976
0.620697 0.198761 0.112976
0.630310 0.198761 0.112976
0.639923 0.198761 0.112976
0.649536 0.198761 0.112976
0.659149 0.198761 0.112976
0.668762 0.198761 0.112976
0.678375 0.198761 0.112976
0.687988 0.198761 0.112976
0.697601 0.198761 0.112976
0.707245 0.198761 0.112976
0.716858 0.198761 0.112976
0.743500 0.199860 0.116486
0.770142 0.200958 0.119965
0.796783 0.202026 0.123444
0.823425 0.203125 0.126892
0.850037 0.204224 0.130371
0.876709 0.205292 0.133850
0.891388 0.218323 0.145691
0.902100 0.235352 0.160339
0.912811 0.252380 0.174957
0.923492 0.269409 0.189606
0.934204 0.286407 0.204254
0.944916 0.303467 0.218903
0.955597 0.320496 0.233490
0.966309 0.337494 0.248138
0.570435 0.209473 0.116486
0.580048 0.209473 0.116486
0.589661 0.209473 0.116486
0.599274 0.209473 0.116486
0.608887 0.209473 0.116486
0.618500 0.209473 0.116486
0.628113 0.209473 0.116486
0.637726 0.209473 0.116486
0.647339 0.209473 0.116486
0.656952 0.209473 0.116486
0.666565 0.209473 0.116486
0.676178 0.209473 0.116486
0.685791 0.209473 0.116486
0.695404 0.209473 0.116486
0.705017 0.209473 0.116486
0.714630 0.209473 0.116486
0.724274 0.209473 0.116486
0.733887 0.209473 0.116486
0.743500 0.209473 0.116486
0.770142 0.210571 0.119965
0.796783 0.211639 0.123444
0.823425 0.212738 0.126892
0.850037 0.213837 0.130371
0.876709 0.214905 0.133850
0.891388 0.227936 0.145691
0.902100 0.244965 0.160339
0.912811 0.261993 0.174957
0.923492 0.279022 0.189606
0.934204 0.296021 0.204254
0.944916 0.313080 0.218903
0.955597 0.330109 0.233490
0.966309 0.347107 0.248138
0.587463 0.220184 0.119965
0.597076 0.220184 0.119965
0.606689 0.220184 0.119965
0.616302 0.220184 0.119965
0.625916 0.220184 0.119965
0.635529 0.220184 0.119965
0.645142 0.220184 0.119965
0.654755 0.220184 0.119965
0.664368 0.220184 0.119965
0.673981 0.220184 0.119965
0.683594 0.220184 0.119965
0.693207 0.220184 0.119965
0.702820 0.220184 0.119965
0.712433 0.220184 0.119965
0.722046 0.220184 0.119965
0.731659 0.220184 0.119965
0.741302 0.220184 0.119965
0.750916 0.220184 0.119965
0.760529 0.220184 0.119965
0.770142 0.220184 0.119965
0.796783 0.221252 0.123444
0.823425 0.222351 0.126892
0.850037 0.223450 0.130371
0.876709 0.224518 0.133850
0.891388 0.237549 0.145691
0.902100 0.254578 0.160339
0.912811 0.271606 0.174957
0.923492 0.288635 0.189606
0.934204 0.305634 0.204254
0.944916 0.322693 0.218903
0.955597 0.339722 0.233490
0.966309 0.356720 0.248138
0.604492 0.230865 0.123444
0.614105 0.230865 0.123444
0.623718 0.230865 0.123444
0.633331 0.230865 0.123444
0.642944 0.230865 0.123444
0.652557 0.230865 0.123444
0.662170 0.230865 0.123444
0.671783 0.230865 0.123444
0.681396 0.230865 0.123444
0.691010 0.230865 0.123444
0.700623 0.230865 0.123444
0.710236 0.230865 0.123444
0.719849 0.230865 0.123444
0.729462 0.230865 0.123444
0.739075 0.230865 0.123444
0.748688 0.230865 0.123444
0.758331 0.230865 0.123444
0.767944 0.230865 0.123444
0.777557 0.230865 0.123444
0.787170 0.230865 0.123444
0.796783 0.230865 0.123444
0.823425 0.231964 0.126892
0.850037 0.233063 0.130371
0.876709 0.234131 0.133850
0.891388 0.247162 0.145691
0.902100 0.264191 0.160339
0.912811 0.281219 0.174957
0.923492 0.298248 0.189606
0.934204 0.315247 0.204254
0.944916 0.332306 0.218903
0.955597 0.349335 0.233490
0.966309 0.366333 0.248138
0.621521 0.241577 0.126892
0.631134 0.241577 0.126892
0.640747 0.241577 0.126892
0.650360 0.241577 0.126892
0.659973 0.241577 0.126892
0.669586 0.241577 0.126892
0.679199 0.241577 0.126892
0.688812 0.241577 0.126892
0.698425 0.241577 0.126892
0.708038 0.241577 0.126892
0.717651 0.241577 0.126892
0.727264 0.241577 0.126892
0.736877 0.241577 0.126892
0.746490 0.241577 0.126892
0.756104 0.241577 0.126892
0.765717 0.241577 0.126892
0.775360 0.241577 0.126892
0.784973 0.241577 0.126892
0.794586 0.241577 0.126892
0.804199 0.241577 0.126892
0.813812 0.241577 0.126892
0.823425 0.241577 0.126892
0.850037 0.242676 0.130371
0.876709 0.243744 0.133850
0.891388 0.256775 0.145691
0.902100 0.273804 0.160339
0.912811 0.290833 0.174957
0.923492 0.307861 0.189606
0.934204 0.324860 0.204254
0.944916 0.341949 0.218903
0.955597 0.358948 0.233490
0.966309 0.375946 0.248138
0.638519 0.252289 0.130371
0.648163 0.252289 0.130371
0.657776 0.252289 0.130371
0.667389 0.252289 0.130371
0.677002 0.252289 0.130371
0.686615 0.252289 0.130371
0.696228 0.252289 0.130371
0.705841 0.252289 0.130371
0.715454 0.252289 0.130371
0.725067 0.252289 0.130371
0.734680 0.252289 0.130371
0.744293 0.252289 0.130371
0.753906 0.252289 0.130371
0.763519 0.252289 0.130371
0.773132 0.252289 0.130371
0.782745 0.252289 0.130371
0.792358 0.252289 0.130371
0.801971 0.252289 0.130371
0.811584 0.252289 0.130371
0.821198 0.252289 0.130371
0.830811 0.252289 0.130371
0.840424 0.252289 0.130371
0.850037 0.252289 0.130371
0.876709 0.253357 0.133850
0.891388 0.266388 0.145691
0.902100 0.283417 0.160339
0.912811 0.300446 0.174957
0.923492 0.317474 0.189606
0.934204 0.334473 0.204254
0.944916 0.351563 0.218903
0.955597 0.368561 0.233490
0.966309 0.385559 0.248138
0.655579 0.262970 0.133850
0.665192 0.262970 0.133850
0.674805 0.262970 0.133850
0.684418 0.262970 0.133850
0.694031 0.262970 0.133850
0.703644 0.262970 0.133850
0.713257 0.262970 0.133850
0.722870 0.262970 0.133850
0.732483 0.262970 0.133850
0.742096 0.262970 0.133850
0.751709 0.262970 0.133850
0.761322 0.262970 0.133850
0.770966 0.262970 0.133850
0.780579 0.262970 0.133850
0.790192 0.262970 0.133850
0.799805 0.262970 0.133850
0.809418 0.262970 0.133850
0.819031 0.262970 0.133850
0.828644 0.262970 0.133850
0.838257 0.262970 0.133850
0.847870 0.262970 0.133850
0.857483 0.262970 0.133850
0.867096 0.262970 0.133850
0.876709 0.262970 0.133850
0.891388 0.276001 0.145691
0.902100 0.293030 0.160339
0.912811 0.310059 0.174957
0.923492 0.327087 0.189606
0.934204 0.344086 0.204254
0.944916 0.361176 0.218903
0.955597 0.378174 0.233490
0.966309 0.395172 0.248138
0.660675 0.285614 0.145691
0.670288 0.285614 0.145691
0.679901 0.285614 0.145691
0.689514 0.285614 0.145691
0.699127 0.285614 0.145691
0.708740 0.285614 0.145691
0.718353 0.285614 0.145691
0.727966 0.285614 0.145691
0.737579 0.285614 0.145691
0.747192 0.285614 0.145691
0.756805 0.285614 0.145691
0.766418 0.285614 0.145691
0.776031 0.285614 0.145691
0.785645 0.285614 0.145691
0.795258 0.285614 0.145691
0.804871 0.285614 0.145691
0.814484 0.285614 0.145691
0.824097 0.285614 0.145691
0.833710 0.285614 0.145691
0.843323 0.285614 0.145691
0.852936 0.285614 0.145691
0.862549 0.285614 0.145691
0.872162 0.285614 0.145691
0.881775 0.285614 0.145691
0.891388 0.285614 0.145691
0.902100 0.302643 0.160339
0.912811 0.319672 0.174957
0.923492 0.336700 0.189606
0.934204 0.353699 0.204254
0.944916 0.370789 0.218903
0.955597 0.387787 0.233490
0.966309 0.404785 0.248138
0.661743 0.312256 0.160339
0.671356 0.312256 0.160339
0.680969 0.312256 0.160339
0.690582 0.312256 0.160339
0.700226 0.312256 0.160339
0.709839 0.312256 0.160339
0.719452 0.312256 0.160339
0.729065 0.312256 0.160339
0.738678 0.312256 0.160339
0.748291 0.312256 0.160339
0.757904 0.312256 0.160339
0.767517 0.312256 0.160339
0.777130 0.312256 0.160339
0.786743 0.312256 0.160339
0.796356 0.312256 0.160339
0.805969 0.312256 0.160339
0.815582 0.312256 0.160339
0.825195 0.312256 0.160339
0.834808 0.312256 0.160339
0.844421 0.312256 0.160339
0.854034 0.312256 0.160339
0.863647 0.312256 0.160339
0.873260 0.312256 0.160339
0.882874 0.312256 0.160339
0.892487 0.312256 0.160339
0.902100 0.312256 0.160339
0.912811 0.329285 0.174957
0.923492 0.346313 0.189606
0.934204 0.363312 0.204254
0.944916 0.380402 0.218903
0.955597 0.397400 0.233490
0.966309 0.414398 0.248138
0.662842 0.338898 0.174957
0.672455 0.338898 0.174957
0.682068 0.338898 0.174957
0.691681 0.338898 0.174957
0.701294 0.338898 0.174957
0.710907 0.338898 0.174957
0.720520 0.338898 0.174957
0.730133 0.338898 0.174957
0.739746 0.338898 0.174957
0.749359 0.338898 0.174957
0.758972 0.338898 0.174957
0.768585 0.338898 0.174957
0.778198 0.338898 0.174957
0.787842 0.338898 0.174957
0.797455 0.338898 0.174957
0.807068 0.338898 0.174957
0.816681 0.338898 0.174957
0.826294 0.338898 0.174957
0.835907 0.338898 0.174957
0.845520 0.338898 0.174957
0.855133 0.338898 0.174957
0.864746 0.338898 0.174957
0.874359 0.338898 0.174957
0.883972 0.338898 0.174957
0.893585 0.338898 0.174957
0.903198 0.338898 0.174957
0.912811 0.338898 0.174957
0.923492 0.355957 0.189606
0.934204 0.372925 0.204254
0.944916 0.390015 0.218903
0.955597 0.407013 0.233490
0.966309 0.424011 0.248138
0.663910 0.365570 0.189606
0.673523 0.365570 0.189606
0.683136 0.365570 0.189606
0.692749 0.365570 0.189606
0.702362 0.365570 0.189606
0.711975 0.365570 0.189606
0.721588 0.365570 0.189606
0.731201 0.365570 0.189606
0.740814 0.365570 0.189606
0.750458 0.365570 0.189606
0.760071 0.365570 0.189606
0.769684 0.365570 0.189606
0.779297 0.365570 0.189606
0.788910 0.365570 0.189606
0.798523 0.365570 0.189606
0.808136 0.365570 0.189606
0.817749 0.365570 0.189606
0.827362 0.365570 0.189606
