Tutorial 03 - Complete/res/Warm.CUBE
#Created by: Adobe Photoshop Export Color Lookup Plugin
TITLE "Untitled-1"
#LUT size
LUT_3D_SIZE 8
#data domain
#LUT data points
DOMAIN_MIN 0.000000 0.000000 0.000000
DOMAIN_MAX 0.903226 0.903226 0.903226
0.263916 0.016846 0.053894
0.370514 0.021210 0.067810
0.477051 0.025543 0.081696
0.583618 0.029907 0.095612
0.690186 0.034241 0.109528
0.796783 0.038574 0.123444
0.891388 0.054871 0.145691
0.934204 0.122955 0.204254
0.332031 0.059662 0.067810
0.370514 0.059662 0.067810
0.477051 0.064026 0.081696
0.583618 0.068359 0.095612
0.690186 0.072723 0.109528
0.796783 0.077026 0.123444
0.891388 0.093353 0.145691
0.934204 0.161407 0.204254
0.400146 0.102478 0.081696
0.438599 0.102478 0.081696
0.477051 0.102478 0.081696
0.583618 0.106812 0.095612
0.690186 0.111176 0.109528
0.796783 0.115479 0.123444
0.891388 0.131805 0.145691
0.934204 0.199860 0.204254
0.468262 0.145264 0.095612
0.506714 0.145264 0.095612
0.545166 0.145264 0.095612
0.583618 0.145264 0.095612
0.690186 0.149628 0.109528
0.796783 0.153961 0.123444
0.891388 0.170258 0.145691
0.934204 0.238342 0.204254
0.536377 0.188080 0.109528
0.574829 0.188080 0.109528
0.613281 0.188080 0.109528
0.651733 0.188080 0.109528
0.690186 0.188080 0.109528
0.796783 0.192413 0.123444
0.891388 0.208710 0.145691
0.934204 0.276794 0.204254
0.604492 0.230865 0.123444
0.642944 0.230865 0.123444
0.681396 0.230865 0.123444
0.719849 0.230865 0.123444
0.758331 0.230865 0.123444
0.796783 0.230865 0.123444
0.891388 0.247162 0.145691
0.934204 0.315247 0.204254
0.660675 0.285614 0.145691
0.699127 0.285614 0.145691
0.737579 0.285614 0.145691
0.776031 0.285614 0.145691
0.814484 0.285614 0.145691
0.852936 0.285614 0.145691
0.891388 0.285614 0.145691
0.934204 0.353699 0.204254
0.665009 0.392151 0.204254
0.703461 0.392151 0.204254
0.741913 0.392151 0.204254
0.780365 0.392151 0.204254
0.818848 0.392151 0.204254
0.857300 0.392151 0.204254
0.895752 0.392151 0.204254
0.934204 0.392151 0.204254
0.332031 0.021210 0.106262
0.370514 0.021210 0.106262
0.477051 0.025543 0.120148
0.583618 0.029907 0.134064
0.690186 0.034241 0.147980
0.796783 0.038574 0.161896
0.891388 0.054871 0.184143
0.934204 0.122955 0.242706
0.332031 0.059662 0.106262
0.438599 0.064026 0.120148
0.545166 0.068359 0.134064
0.651733 0.072723 0.147980
0.758331 0.077026 0.161896
0.852936 0.093353 0.184143
0.895752 0.161407 0.242706
0.938568 0.229553 0.301270
0.400146 0.102478 0.120148
0.506714 0.106812 0.134064
0.545166 0.106812 0.134064
0.651733 0.111176 0.147980
0.758331 0.115479 0.161896
0.852936 0.131805 0.184143
0.895752 0.199860 0.242706
0.938568 0.268005 0.301270
0.468262 0.145264 0.134064
0.574829 0.149628 0.147980
0.613281 0.149628 0.147980
0.651733 0.149628 0.147980
0.758331 0.153961 0.161896
0.852936 0.170258 0.184143
0.895752 0.238342 0.242706
0.938568 0.306488 0.301270
0.536377 0.188080 0.147980
0.642944 0.192413 0.161896
0.681396 0.192413 0.161896
0.719849 0.192413 0.161896
0.758331 0.192413 0.161896
0.852936 0.208710 0.184143
0.895752 0.276794 0.242706
0.938568 0.344940 0.301270
0.604492 0.230865 0.161896
0.699127 0.247162 0.184143
0.737579 0.247162 0.184143
0.776031 0.247162 0.184143
0.814484 0.247162 0.184143
0.852936 0.247162 0.184143
0.895752 0.315247 0.242706
0.938568 0.383392 0.301270
0.660675 0.285614 0.184143
0.703461 0.353699 0.242706
0.741913 0.353699 0.242706
0.780365 0.353699 0.242706
0.818848 0.353699 0.242706
0.857300 0.353699 0.242706
0.895752 0.353699 0.242706
0.938568 0.421844 0.301270
0.665009 0.392151 0.242706
0.707825 0.460297 0.301270
0.746277 0.460297 0.301270
0.784729 0.460297 0.301270
0.823181 0.460297 0.301270
0.861633 0.460297 0.301270
0.900085 0.460297 0.301270
0.938568 0.460297 0.301270
0.400146 0.025543 0.158600
0.438599 0.025543 0.158600
0.477051 0.025543 0.158600
0.583618 0.029907 0.172516
0.690186 0.034241 0.186432
0.796783 0.038574 0.200348
0.891388 0.054871 0.222595
0.934204 0.122955 0.281158
0.400146 0.064026 0.158600
0.506714 0.068359 0.172516
0.545166 0.068359 0.172516
0.651733 0.072723 0.186432
0.758331 0.077026 0.200348
0.852936 0.093353 0.222595
0.895752 0.161407 0.281158
0.938568 0.229553 0.339722
0.400146 0.102478 0.158600
0.506714 0.106812 0.172516
0.613281 0.111176 0.186432
0.719849 0.115479 0.200348
0.814484 0.131805 0.222595
0.857300 0.199860 0.281158
0.900085 0.268005 0.339722
0.942902 0.336151 0.398254
0.468262 0.145264 0.172516
0.574829 0.149628 0.186432
0.681396 0.153961 0.200348
0.719849 0.153961 0.200348
0.814484 0.170258 0.222595
0.857300 0.238342 0.281158
0.900085 0.306488 0.339722
0.942902 0.374603 0.398254
0.536377 0.188080 0.186432
0.642944 0.192413 0.200348
0.737579 0.208710 0.222595
0.776031 0.208710 0.222595
0.814484 0.208710 0.222595
0.857300 0.276794 0.281158
0.900085 0.344940 0.339722
0.942902 0.413055 0.398254
0.604492 0.230865 0.200348
0.699127 0.247162 0.222595
0.741913 0.315247 0.281158
0.780365 0.315247 0.281158
0.818848 0.315247 0.281158
0.857300 0.315247 0.281158
0.900085 0.383392 0.339722
0.942902 0.451508 0.398254
0.660675 0.285614 0.222595
0.703461 0.353699 0.281158
0.746277 0.421844 0.339722
0.784729 0.421844 0.339722
0.823181 0.421844 0.339722
0.861633 0.421844 0.339722
0.900085 0.421844 0.339722
0.942902 0.489960 0.398254
0.665009 0.392151 0.281158
0.707825 0.460297 0.339722
0.750610 0.528412 0.398254
0.789063 0.528412 0.398254
0.827545 0.528412 0.398254
0.865997 0.528412 0.398254
0.904449 0.528412 0.398254
0.942902 0.528412 0.398254
0.468262 0.029907 0.210968
0.506714 0.029907 0.210968
0.545166 0.029907 0.210968
0.583618 0.029907 0.210968
0.690186 0.034241 0.224884
0.796783 0.038574 0.238800
0.891388 0.054871 0.261047
0.934204 0.122955 0.319611
0.468262 0.068359 0.210968
0.574829 0.072723 0.224884
0.613281 0.072723 0.224884
0.651733 0.072723 0.224884
0.758331 0.077026 0.238800
0.852936 0.093353 0.261047
0.895752 0.161407 0.319611
0.938568 0.229553 0.378174
0.468262 0.106812 0.210968
0.574829 0.111176 0.224884
0.681396 0.115479 0.238800
0.719849 0.115479 0.238800
0.814484 0.131805 0.261047
0.857300 0.199860 0.319611
0.900085 0.268005 0.378174
0.942902 0.336151 0.436707
0.468262 0.145264 0.210968
0.574829 0.149628 0.224884
0.681396 0.153961 0.238800
0.776031 0.170258 0.261047
0.818848 0.238342 0.319611
0.861633 0.306488 0.378174
0.904449 0.374603 0.436707
0.947266 0.442688 0.495270
0.536377 0.188080 0.224884
0.642944 0.192413 0.238800
0.737579 0.208710 0.261047
0.780365 0.276794 0.319611
0.818848 0.276794 0.319611
0.861633 0.344940 0.378174
0.904449 0.413055 0.436707
0.947266 0.481171 0.495270
0.604492 0.230865 0.238800
0.699127 0.247162 0.261047
0.741913 0.315247 0.319611
0.784729 0.383392 0.378174
0.823181 0.383392 0.378174
0.861633 0.383392 0.378174
0.904449 0.451508 0.436707
0.947266 0.519623 0.495270
0.660675 0.285614 0.261047
0.703461 0.353699 0.319611
0.746277 0.421844 0.378174
0.789063 0.489960 0.436707
0.827545 0.489960 0.436707
0.865997 0.489960 0.436707
0.904449 0.489960 0.436707
0.947266 0.558075 0.495270
0.665009 0.392151 0.319611
0.707825 0.460297 0.378174
0.750610 0.528412 0.436707
0.793427 0.596527 0.495270
0.831879 0.596527 0.495270
0.870331 0.596527 0.495270
0.908783 0.596527 0.495270
0.947266 0.596527 0.495270
0.536377 0.034241 0.263367
0.574829 0.034241 0.263367
0.613281 0.034241 0.263367
0.651733 0.034241 0.263367
0.690186 0.034241 0.263367
0.796783 0.038574 0.277252
0.891388 0.054871 0.299530
0.934204 0.122955 0.358063
0.536377 0.072723 0.263367
0.642944 0.077026 0.277252
0.681396 0.077026 0.277252
0.719849 0.077026 0.277252
0.758331 0.077026 0.277252
0.852936 0.093353 0.299530
0.895752 0.161407 0.358063
0.938568 0.229553 0.416626
0.536377 0.111176 0.263367
0.642944 0.115479 0.277252
0.737579 0.131805 0.299530
0.776031 0.131805 0.299530
0.814484 0.131805 0.299530
0.857300 0.199860 0.358063
0.900085 0.268005 0.416626
0.942902 0.336151 0.475189
0.536377 0.149628 0.263367
0.642944 0.153961 0.277252
0.737579 0.170258 0.299530
0.780365 0.238342 0.358063
0.818848 0.238342 0.358063
0.861633 0.306488 0.416626
0.904449 0.374603 0.475189
0.947266 0.442688 0.533722
0.536377 0.188080 0.263367
0.642944 0.192413 0.277252
0.737579 0.208710 0.299530
0.780365 0.276794 0.358063
0.823181 0.344971 0.416656
0.865997 0.413086 0.475220
0.908783 0.481171 0.533752
0.951599 0.549316 0.592316
0.604492 0.230865 0.277252
0.699127 0.247162 0.299530
0.741913 0.315247 0.358063
0.784729 0.383392 0.416626
0.827545 0.451538 0.475220
0.865997 0.451538 0.475220
0.908783 0.519623 0.533752
0.951599 0.587769 0.592316
0.660675 0.285614 0.299530
0.703461 0.353699 0.358063
0.746277 0.421844 0.416626
0.789063 0.489960 0.475189
0.831879 0.558105 0.533752
0.870331 0.558105 0.533752
0.908783 0.558105 0.533752
0.951599 0.626221 0.592316
0.665009 0.392151 0.358063
0.707825 0.460297 0.416626
0.750610 0.528412 0.475189
0.793427 0.596527 0.533722
0.836243 0.664673 0.592316
0.874695 0.664673 0.592316
0.913147 0.664673 0.592316
0.951599 0.664673 0.592316
0.604492 0.038574 0.315704
0.642944 0.038574 0.315704
0.681396 0.038574 0.315704
0.719849 0.038574 0.315704
0.758331 0.038574 0.315704
0.796783 0.038574 0.315704
0.891388 0.054871 0.337982
0.934204 0.122955 0.396515
0.604492 0.077026 0.315704
0.699127 0.093353 0.337982
0.737579 0.093353 0.337982
0.776031 0.093353 0.337982
0.814484 0.093353 0.337982
0.852936 0.093353 0.337982
0.895752 0.161407 0.396515
0.938568 0.229553 0.455078
0.604492 0.115479 0.315704
0.699127 0.131805 0.337982
0.741913 0.199860 0.396515
0.780365 0.199860 0.396515
0.818848 0.199860 0.396515
0.857300 0.199860 0.396515
0.900085 0.268005 0.455078
0.942902 0.336151 0.513641
0.604492 0.153961 0.315704
0.699127 0.170258 0.337982
0.741913 0.238342 0.396515
0.784729 0.306488 0.455078
0.823181 0.306488 0.455078
0.861633 0.306488 0.455078
0.904449 0.374603 0.513641
0.947266 0.442688 0.572174
0.604492 0.192413 0.315704
0.699127 0.208710 0.337982
0.741913 0.276794 0.396515
0.784729 0.344940 0.455078
0.827545 0.413086 0.513672
0.865997 0.413086 0.513672
0.908783 0.481171 0.572205
0.951599 0.549316 0.630768
0.604492 0.230865 0.315704
0.699127 0.247162 0.337982
0.741913 0.315247 0.396515
0.784729 0.383392 0.455078
0.827545 0.451538 0.513672
0.870331 0.519623 0.572205
0.913147 0.587769 0.630768
0.955963 0.655853 0.689331
0.660675 0.285614 0.337982
0.703461 0.353699 0.396515
0.746277 0.421844 0.455078
0.789063 0.489960 0.513641
0.831879 0.558105 0.572205
0.874695 0.626221 0.630768
0.913147 0.626221 0.630768
0.955963 0.694305 0.689331
0.665009 0.392151 0.396515
0.707825 0.460297 0.455078
0.750610 0.528412 0.513641
0.793427 0.596527 0.572174
0.836243 0.664673 0.630768
0.879028 0.732758 0.689331
0.917480 0.732758 0.689331
0.955963 0.732758 0.689331
0.660675 0.054871 0.376434
0.699127 0.054871 0.376434
0.737579 0.054871 0.376434
0.776031 0.054871 0.376434
0.814484 0.054871 0.376434
0.852936 0.054871 0.376434
0.891388 0.054871 0.376434
0.934204 0.122955 0.434967
0.660675 0.093353 0.376434
0.703461 0.161407 0.434967
0.741913 0.161407 0.434967
0.780365 0.161407 0.434967
0.818848 0.161407 0.434967
0.857300 0.161407 0.434967
0.895752 0.161407 0.434967
0.938568 0.229553 0.493561
0.660675 0.131805 0.376434
0.703461 0.199860 0.434967
0.746277 0.268005 0.493561
0.784729 0.268005 0.493561
0.823181 0.268005 0.493561
0.861633 0.268005 0.493561
0.900085 0.268005 0.493561
0.942902 0.336151 0.552094
0.660675 0.170258 0.376434
0.703461 0.238342 0.434967
0.746277 0.306488 0.493561
0.789063 0.374603 0.552094
0.827545 0.374603 0.552094
0.865997 0.374603 0.552094
0.904449 0.374603 0.552094
0.947266 0.442688 0.610626
0.660675 0.208710 0.376434
0.703461 0.276794 0.434967
0.746277 0.344940 0.493561
0.789063 0.413055 0.552094
0.831879 0.481171 0.610657
0.870331 0.481171 0.610657
0.908783 0.481171 0.610657
0.951599 0.549316 0.669220
0.660675 0.247162 0.376434
0.703461 0.315247 0.434967
0.746277 0.383392 0.493561
0.789063 0.451508 0.552094
0.831879 0.519623 0.610657
0.874695 0.587769 0.669220
0.913147 0.587769 0.669220
0.955963 0.655853 0.727783
0.660675 0.285614 0.376434
0.703461 0.353699 0.434967
0.746277 0.421844 0.493561
0.789063 0.489960 0.552094
0.831879 0.558105 0.610657
0.874695 0.626221 0.669220
0.917480 0.694305 0.727783
0.960266 0.762451 0.786316
0.665009 0.392151 0.434967
0.707825 0.460297 0.493561
0.750610 0.528412 0.552094
0.793427 0.596527 0.610626
0.836243 0.664673 0.669220
0.879028 0.732758 0.727783
0.921814 0.800903 0.786316
0.960266 0.800903 0.786316
0.665009 0.122955 0.473419
0.703461 0.122955 0.473419
0.741913 0.122955 0.473419
0.780365 0.122955 0.473419
0.818848 0.122955 0.473419
0.857300 0.122955 0.473419
0.895752 0.122955 0.473419
0.934204 0.122955 0.473419
0.665009 0.161407 0.473419
0.707825 0.229553 0.532013
0.746277 0.229553 0.532013
0.784729 0.229553 0.532013
0.823181 0.229553 0.532013
0.861633 0.229553 0.532013
0.900085 0.229553 0.532013
0.938568 0.229553 0.532013
0.665009 0.199860 0.473419
0.707825 0.268005 0.532013
0.750610 0.336151 0.590546
0.789063 0.336151 0.590546
0.827545 0.336151 0.590546
0.865997 0.336151 0.590546
0.904449 0.336151 0.590546
0.942902 0.336151 0.590546
0.665009 0.238342 0.473419
0.707825 0.306488 0.532013
0.750610 0.374603 0.590546
0.793427 0.442688 0.649109
0.831879 0.442688 0.649109
0.870331 0.442688 0.649109
0.908783 0.442688 0.649109
0.947266 0.442688 0.649109
0.665009 0.276794 0.473419
0.707825 0.344940 0.532013
0.750610 0.413055 0.590546
0.793427 0.481171 0.649109
0.836243 0.549316 0.707672
0.874695 0.549316 0.707672
0.913147 0.549316 0.707672
0.951599 0.549316 0.707672
0.665009 0.315247 0.473419
0.707825 0.383392 0.532013
0.750610 0.451508 0.590546
0.793427 0.519623 0.649109
0.836243 0.587769 0.707672
0.879028 0.655853 0.766235
0.917480 0.655853 0.766235
0.955963 0.655853 0.766235
0.665009 0.353699 0.473419
0.707825 0.421844 0.532013
0.750610 0.489960 0.590546
0.793427 0.558075 0.649109
0.836243 0.626221 0.707672
0.879028 0.694305 0.766235
0.921814 0.762451 0.824768
0.960266 0.762451 0.824768
0.665009 0.392151 0.473419
0.707825 0.460297 0.532013
0.750610 0.528412 0.590546
0.793427 0.596527 0.649109
0.836243 0.664673 0.707672
0.879028 0.732758 0.766235
0.921814 0.800903 0.824768
0.964661 0.869019 0.883362
