Tutorial 03 - Complete/res/Warm.CUBE
#Created by: Adobe Photoshop Export Color Lookup Plugin
TITLE "Untitled-1"
#LUT size
LUT_3D_SIZE 5
#data domain
#LUT data points
DOMAIN_MIN 0.000000 0.000000 0.000000
DOMAIN_MAX 0.903226 0.903226 0.903226
0.263916 0.016846 0.053894
0.450378 0.024475 0.078247
0.636902 0.032074 0.102570
0.823425 0.039673 0.126892
0.934204 0.122955 0.204254
0.383087 0.091766 0.078247
0.450378 0.091766 0.078247
0.636902 0.099365 0.102570
0.823425 0.106964 0.126892
0.934204 0.190247 0.204254
0.502319 0.166656 0.102570
0.569611 0.166656 0.102570
0.636902 0.166656 0.102570
0.823425 0.174255 0.126892
0.934204 0.257568 0.204254
0.621521 0.241577 0.126892
0.688812 0.241577 0.126892
0.756104 0.241577 0.126892
0.823425 0.241577 0.126892
0.934204 0.324860 0.204254
0.665009 0.392151 0.204254
0.732300 0.392151 0.204254
0.799591 0.392151 0.204254
0.866913 0.392151 0.204254
0.934204 0.392151 0.204254
0.383087 0.024475 0.145538
0.450378 0.024475 0.145538
0.636902 0.032074 0.169861
0.823425 0.039673 0.194214
0.934204 0.122955 0.271545
0.383087 0.091766 0.145538
0.569611 0.099365 0.169861
0.756073 0.106964 0.194214
0.866913 0.190247 0.271545
0.941803 0.309509 0.374023
0.502319 0.166656 0.169861
0.688782 0.174255 0.194214
0.756073 0.174255 0.194214
0.866913 0.257568 0.271545
0.941803 0.376801 0.374023
0.621521 0.241577 0.194214
0.732300 0.324860 0.271545
0.799591 0.324860 0.271545
0.866913 0.324860 0.271545
0.941803 0.444092 0.374023
0.665009 0.392151 0.271545
0.739899 0.511383 0.374023
0.807220 0.511383 0.374023
0.874512 0.511383 0.374023
0.941803 0.511383 0.374023
0.502319 0.032074 0.237152
0.569611 0.032074 0.237152
0.636902 0.032074 0.237152
0.823425 0.039673 0.261505
0.934204 0.122955 0.338837
0.502319 0.099365 0.237152
0.688782 0.106964 0.261505
0.756073 0.106964 0.261505
0.866913 0.190247 0.338837
0.941803 0.309509 0.441315
0.502319 0.166656 0.237152
0.688782 0.174255 0.261505
0.799591 0.257568 0.338837
0.874512 0.376801 0.441315
0.949402 0.495972 0.543762
0.621521 0.241577 0.261505
0.732300 0.324860 0.338837
0.807220 0.444092 0.441315
0.874512 0.444092 0.441315
0.949402 0.563263 0.543762
0.665009 0.392151 0.338837
0.739899 0.511383 0.441315
0.814819 0.630554 0.543762
0.882111 0.630554 0.543762
0.949402 0.630554 0.543762
0.621521 0.039673 0.328796
0.688812 0.039673 0.328796
0.756104 0.039673 0.328796
0.823425 0.039673 0.328796
0.934204 0.122955 0.406128
0.621521 0.106964 0.328796
0.732300 0.190247 0.406128
0.799591 0.190247 0.406128
0.866913 0.190247 0.406128
0.941803 0.309509 0.508636
0.621521 0.174255 0.328796
0.732300 0.257568 0.406128
0.807220 0.376801 0.508636
0.874512 0.376801 0.508636
0.949402 0.495972 0.611053
0.621521 0.241577 0.328796
0.732300 0.324860 0.406128
0.807220 0.444092 0.508636
0.882111 0.563293 0.611115
0.957031 0.682495 0.713562
0.665009 0.392151 0.406128
0.739899 0.511383 0.508636
0.814819 0.630554 0.611053
0.889709 0.749786 0.713562
0.957031 0.749786 0.713562
0.665009 0.122955 0.473419
0.732300 0.122955 0.473419
0.799591 0.122955 0.473419
0.866913 0.122955 0.473419
0.934204 0.122955 0.473419
0.665009 0.190247 0.473419
0.739899 0.309509 0.575928
0.807220 0.309509 0.575928
0.874512 0.309509 0.575928
0.941803 0.309509 0.575928
0.665009 0.257568 0.473419
0.739899 0.376801 0.575928
0.814819 0.495972 0.678345
0.882111 0.495972 0.678345
0.949402 0.495972 0.678345
0.665009 0.324860 0.473419
0.739899 0.444092 0.575928
0.814819 0.563263 0.678345
0.889709 0.682495 0.780853
0.957031 0.682495 0.780853
0.665009 0.392151 0.473419
0.739899 0.511383 0.575928
0.814819 0.630554 0.678345
0.889709 0.749786 0.780853
0.964661 0.869019 0.883362
